src/assets/svg/icons/fa/nuevos/classic/thin/grill-hot classic thin.svg

<svg xmlns="http://www.w3.org/2000/svg" viewBox="0 0 448 512"><path d="M104 0C108.4 0 112 3.582 112 8V17.35C112 28.59 117.9 39.01 127.5 44.79L168.7 69.49C183.2 78.16 192 93.79 192 110.6V119.1C192 124.4 188.4 127.1 184 127.1C179.6 127.1 176 124.4 176 119.1V110.6C176 99.41 170.1 88.99 160.5 83.21L119.3 58.51C104.8 49.84 96 34.21 96 17.35V8C96 3.582 99.58 0 104 0V0zM200 0C204.4 0 208 3.582 208 8V17.35C208 28.59 213.9 39.01 223.5 44.79L264.7 69.49C279.2 78.16 288 93.79 288 110.6V119.1C288 124.4 284.4 127.1 280 127.1C275.6 127.1 272 124.4 272 119.1V110.6C272 99.41 266.1 88.99 256.5 83.21L215.3 58.51C200.8 49.84 192 34.21 192 17.35V8C192 3.582 195.6 0 200 0V0zM0 192C0 174.3 14.33 160 32 160H416C433.7 160 448 174.3 448 192C448 273.9 396.7 343.8 324.5 371.4L383.3 500.7C385.1 504.7 383.3 509.5 379.3 511.3C375.3 513.1 370.5 511.3 368.7 507.3L345.4 456H159.5C155.6 487.6 128.6 512 96 512C60.65 512 32 483.3 32 448C32 412.7 60.65 384 96 384C103.1 384 109.9 385.2 116.3 387.3L123.5 371.4C51.28 343.8 0 273.9 0 192V192zM16 192C16 289.2 94.8 368 192 368H256C353.2 368 432 289.2 432 192C432 183.2 424.8 176 416 176H32C23.16 176 16 183.2 16 192zM256 384H192C173.5 384 155.6 381.4 138.7 376.5L130.7 394.2C146.2 404.2 157.1 420.8 159.5 440H338.1L309.3 376.5C292.4 381.4 274.5 384 256 384V384zM96 400C69.49 400 48 421.5 48 448C48 474.5 69.49 496 96 496C122.5 496 144 474.5 144 448C144 421.5 122.5 400 96 400z"/></svg>

<svg xmlns="http://www.w3.org/2000/svg" viewBox="0 0 448 512"><!--! Font Awesome Pro 6.4.0 by @fontawesome - https://fontawesome.com License - https://fontawesome.com/license (Commercial License) Copyright 2023 Fonticons, Inc. --><path d="M104 0c4.4 0 8 3.6 8 8v9.4c0 11.2 5.9 21.7 15.5 27.4l41.2 24.7c14.5 8.7 23.3 24.3 23.3 41.2V120c0 4.4-3.6 8-8 8s-8-3.6-8-8v-9.4c0-11.2-5.9-21.7-15.5-27.4L119.3 58.5C104.8 49.8 96 34.2 96 17.4V8c0-4.4 3.6-8 8-8zm96 0c4.4 0 8 3.6 8 8v9.4c0 11.2 5.9 21.7 15.5 27.4l41.2 24.7c14.5 8.7 23.3 24.3 23.3 41.2V120c0 4.4-3.6 8-8 8s-8-3.6-8-8v-9.4c0-11.2-5.9-21.7-15.5-27.4L215.3 58.5C200.8 49.8 192 34.2 192 17.4V8c0-4.4 3.6-8 8-8zM32 176c-8.8 0-16 7.2-16 16c0 97.2 78.8 176 176 176h64c97.2 0 176-78.8 176-176c0-8.8-7.2-16-16-16H32zM0 192c0-17.7 14.3-32 32-32H416c17.7 0 32 14.3 32 32c0 81.9-51.3 151.8-123.5 179.4l58.8 129.3c1.8 4 0 8.8-4 10.6s-8.8 0-10.6-4L345.4 456H159.5c-3.9 31.6-30.9 56-63.5 56c-35.3 0-64-28.7-64-64s28.7-64 64-64c7.1 0 13.9 1.2 20.3 3.3l7.2-15.9C51.3 343.8 0 273.9 0 192zM309.3 376.5c-16.9 4.9-34.8 7.5-53.3 7.5H192c-18.5 0-36.4-2.6-53.3-7.5l-8 17.7c15.5 10 26.4 26.6 28.8 45.8H338.1l-28.9-63.5zM144 448a48 48 0 1 0 -96 0 48 48 0 1 0 96 0z"/></svg>
